X: 2
T: Calliope House   [E]
C: Dave Richardson
R: jig
N: Calliope House is a folk center in Pittsburgh.
S: Milford NH Contra Dance collection
Z: John Chambers <jc:trillian.mit.edu>
M: 6/8
L: 1/8
K: E
B |\
"E"eBB gBB | "B7"fBB "E"gBB | "A"cff f2e | "B"fge c2e |\
"E"B3 B2G |"E" B2c e2f |
[1 "A"g2b gfe | "B7"f3- f2 :|\
[2 "E"gbg "B7"fec | "E"e3- e3 |:\
"E"b3 gbb | "B7"fbb "E"gbb | "A"a3 gag |
"B7"f2e c2e | "E"B3 B2G | B2c e2f |\
[1 "A"g2b gfe | "B7"f3- fga :|\
[2 "E"gbg "B7"fec | "E"e3- e2 |]
